( Made using CamBam - http://www.cambam.co.uk )
( Fabricar-mdf-15mm-X-mesa 5/4/2015 2:30:57 PM )
( T3 : 3.0 )
G21 G90 G64 G40
G0 Z3.0
( T3 : 3.0 )
T3 M6
( rasgo-passante )
G17
M3 S1000
G0 X96.5 Y60.5
G0 Z1.0
G1 F500.0 Z-3.0
G1 Y72.5
G1 X143.5
G1 Y60.5
G1 X96.5
G1 Z-6.0
G1 Y72.5
G1 X143.5
G1 Y60.5
G1 X96.5
G1 Z-9.0
G1 Y72.5
G1 X143.5
G1 Y60.5
G1 X96.5
G1 Z-12.0
G1 Y72.5
G1 X143.5
G1 Y60.5
G1 X96.5
G1 Z-15.0
G1 Y72.5
G1 X143.5
G1 Y60.5
G1 X96.5
G1 Z-16.0
G1 Y72.5
G1 X143.5
G1 Y60.5
G1 X96.5
( furos-6mm-passante )
S1000
G0 Z3.0
G0 X21.5 Y29.0
G0 Z1.0
G1 Z-4.0
G2 F600.0 X19.25 Y27.701 I-1.5 J0.0
G2 Y30.299 I0.75 J1.299
G2 X21.5 Y29.0 I0.75 J-1.299
G1 F500.0 Z-8.0
G2 F600.0 X19.25 Y27.701 I-1.5 J0.0
G2 Y30.299 I0.75 J1.299
G2 X21.5 Y29.0 I0.75 J-1.299
G1 F500.0 Z-12.0
G2 F600.0 X19.25 Y27.701 I-1.5 J0.0
G2 Y30.299 I0.75 J1.299
G2 X21.5 Y29.0 I0.75 J-1.299
G1 F500.0 Z-16.0
G2 F600.0 X19.25 Y27.701 I-1.5 J0.0
G2 Y30.299 I0.75 J1.299
G2 X21.5 Y29.0 I0.75 J-1.299
G0 Z3.0
G0 X58.5
G0 Z1.0
G1 F500.0 Z-4.0
G2 F600.0 X59.25 Y30.299 I1.5 J0.0
G2 X61.5 Y29.0 I0.75 J-1.299
G2 X59.25 Y27.701 I-1.5 J0.0
G2 X58.5 Y29.0 I0.75 J1.299
G1 F500.0 Z-8.0
G2 F600.0 X59.25 Y30.299 I1.5 J0.0
G2 X61.5 Y29.0 I0.75 J-1.299
G2 X59.25 Y27.701 I-1.5 J0.0
G2 X58.5 Y29.0 I0.75 J1.299
G1 F500.0 Z-12.0
G2 F600.0 X59.25 Y30.299 I1.5 J0.0
G2 X61.5 Y29.0 I0.75 J-1.299
G2 X59.25 Y27.701 I-1.5 J0.0
G2 X58.5 Y29.0 I0.75 J1.299
G1 F500.0 Z-16.0
G2 F600.0 X59.25 Y30.299 I1.5 J0.0
G2 X61.5 Y29.0 I0.75 J-1.299
G2 X59.25 Y27.701 I-1.5 J0.0
G2 X58.5 Y29.0 I0.75 J1.299
G0 Z3.0
G0 X59.9438 Y67.5011
G0 Z1.0
G1 F500.0 Z-4.0
G2 F600.0 X59.25 Y67.701 I0.0562 J1.4989
G2 Y70.299 I0.75 J1.299
G2 X61.5 Y69.0 I0.75 J-1.299
G2 X59.9438 Y67.5011 I-1.5 J0.0
G1 F500.0 Z-8.0
G2 F600.0 X59.25 Y67.701 I0.0562 J1.4989
G2 Y70.299 I0.75 J1.299
G2 X61.5 Y69.0 I0.75 J-1.299
G2 X59.9438 Y67.5011 I-1.5 J0.0
G1 F500.0 Z-12.0
G2 F600.0 X59.25 Y67.701 I0.0562 J1.4989
G2 Y70.299 I0.75 J1.299
G2 X61.5 Y69.0 I0.75 J-1.299
G2 X59.9438 Y67.5011 I-1.5 J0.0
G1 F500.0 Z-16.0
G2 F600.0 X59.25 Y67.701 I0.0562 J1.4989
G2 Y70.299 I0.75 J1.299
G2 X61.5 Y69.0 I0.75 J-1.299
G2 X59.9438 Y67.5011 I-1.5 J0.0
G0 Z3.0
G0 X59.9949 Y82.5
G0 Z1.0
G1 F500.0 Z-4.0
G2 F600.0 X59.25 Y82.701 I0.0051 J1.5
G2 Y85.299 I0.75 J1.299
G2 X61.5 Y84.0 I0.75 J-1.299
G2 X59.9949 Y82.5 I-1.5 J0.0
G1 F500.0 Z-8.0
G2 F600.0 X59.25 Y82.701 I0.0051 J1.5
G2 Y85.299 I0.75 J1.299
G2 X61.5 Y84.0 I0.75 J-1.299
G2 X59.9949 Y82.5 I-1.5 J0.0
G1 F500.0 Z-12.0
G2 F600.0 X59.25 Y82.701 I0.0051 J1.5
G2 Y85.299 I0.75 J1.299
G2 X61.5 Y84.0 I0.75 J-1.299
G2 X59.9949 Y82.5 I-1.5 J0.0
G1 F500.0 Z-16.0
G2 F600.0 X59.25 Y82.701 I0.0051 J1.5
G2 Y85.299 I0.75 J1.299
G2 X61.5 Y84.0 I0.75 J-1.299
G2 X59.9949 Y82.5 I-1.5 J0.0
G0 Z3.0
G0 X96.5063 Y79.1376
G0 Z1.0
G1 F500.0 Z-4.0
G2 F600.0 X97.25 Y80.299 I1.4937 J-0.1376
G2 X99.5 Y79.0 I0.75 J-1.299
G2 X97.25 Y77.701 I-1.5 J0.0
G2 X96.5063 Y79.1376 I0.75 J1.299
G1 F500.0 Z-8.0
G2 F600.0 X97.25 Y80.299 I1.4937 J-0.1376
G2 X99.5 Y79.0 I0.75 J-1.299
G2 X97.25 Y77.701 I-1.5 J0.0
G2 X96.5063 Y79.1376 I0.75 J1.299
G1 F500.0 Z-12.0
G2 F600.0 X97.25 Y80.299 I1.4937 J-0.1376
G2 X99.5 Y79.0 I0.75 J-1.299
G2 X97.25 Y77.701 I-1.5 J0.0
G2 X96.5063 Y79.1376 I0.75 J1.299
G1 F500.0 Z-16.0
G2 F600.0 X97.25 Y80.299 I1.4937 J-0.1376
G2 X99.5 Y79.0 I0.75 J-1.299
G2 X97.25 Y77.701 I-1.5 J0.0
G2 X96.5063 Y79.1376 I0.75 J1.299
G0 Z3.0
G0 X97.911 Y55.4974
G0 Z1.0
G1 F500.0 Z-4.0
G2 F600.0 X99.5 Y54.0 I0.089 J-1.4974
G2 X97.25 Y52.701 I-1.5 J0.0
G2 Y55.299 I0.75 J1.299
G2 X97.911 Y55.4974 I0.75 J-1.299
G1 F500.0 Z-8.0
G2 F600.0 X99.5 Y54.0 I0.089 J-1.4974
G2 X97.25 Y52.701 I-1.5 J0.0
G2 Y55.299 I0.75 J1.299
G2 X97.911 Y55.4974 I0.75 J-1.299
G1 F500.0 Z-12.0
G2 F600.0 X99.5 Y54.0 I0.089 J-1.4974
G2 X97.25 Y52.701 I-1.5 J0.0
G2 Y55.299 I0.75 J1.299
G2 X97.911 Y55.4974 I0.75 J-1.299
G1 F500.0 Z-16.0
G2 F600.0 X99.5 Y54.0 I0.089 J-1.4974
G2 X97.25 Y52.701 I-1.5 J0.0
G2 Y55.299 I0.75 J1.299
G2 X97.911 Y55.4974 I0.75 J-1.299
G0 Z3.0
G0 X140.5009 Y54.0509
G0 Z1.0
G1 F500.0 Z-4.0
G2 F600.0 X141.25 Y55.299 I1.4991 J-0.0509
G2 X143.5 Y54.0 I0.75 J-1.299
G2 X141.25 Y52.701 I-1.5 J0.0
G2 X140.5009 Y54.0509 I0.75 J1.299
G1 F500.0 Z-8.0
G2 F600.0 X141.25 Y55.299 I1.4991 J-0.0509
G2 X143.5 Y54.0 I0.75 J-1.299
G2 X141.25 Y52.701 I-1.5 J0.0
G2 X140.5009 Y54.0509 I0.75 J1.299
G1 F500.0 Z-12.0
G2 F600.0 X141.25 Y55.299 I1.4991 J-0.0509
G2 X143.5 Y54.0 I0.75 J-1.299
G2 X141.25 Y52.701 I-1.5 J0.0
G2 X140.5009 Y54.0509 I0.75 J1.299
G1 F500.0 Z-16.0
G2 F600.0 X141.25 Y55.299 I1.4991 J-0.0509
G2 X143.5 Y54.0 I0.75 J-1.299
G2 X141.25 Y52.701 I-1.5 J0.0
G2 X140.5009 Y54.0509 I0.75 J1.299
G0 Z3.0
G0 X141.91 Y77.5027
G0 Z1.0
G1 F500.0 Z-4.0
G2 F600.0 X141.25 Y77.701 I0.09 J1.4973
G2 Y80.299 I0.75 J1.299
G2 X143.5 Y79.0 I0.75 J-1.299
G2 X141.91 Y77.5027 I-1.5 J0.0
G1 F500.0 Z-8.0
G2 F600.0 X141.25 Y77.701 I0.09 J1.4973
G2 Y80.299 I0.75 J1.299
G2 X143.5 Y79.0 I0.75 J-1.299
G2 X141.91 Y77.5027 I-1.5 J0.0
G1 F500.0 Z-12.0
G2 F600.0 X141.25 Y77.701 I0.09 J1.4973
G2 Y80.299 I0.75 J1.299
G2 X143.5 Y79.0 I0.75 J-1.299
G2 X141.91 Y77.5027 I-1.5 J0.0
G1 F500.0 Z-16.0
G2 F600.0 X141.25 Y77.701 I0.09 J1.4973
G2 Y80.299 I0.75 J1.299
G2 X143.5 Y79.0 I0.75 J-1.299
G2 X141.91 Y77.5027 I-1.5 J0.0
G0 Z3.0
G0 X178.5214 Y83.7478
G0 Z1.0
G1 F500.0 Z-4.0
G2 F600.0 X179.25 Y85.299 I1.4786 J0.2522
G2 X181.5 Y84.0 I0.75 J-1.299
G2 X179.25 Y82.701 I-1.5 J0.0
G2 X178.5214 Y83.7478 I0.75 J1.299
G1 F500.0 Z-8.0
G2 F600.0 X179.25 Y85.299 I1.4786 J0.2522
G2 X181.5 Y84.0 I0.75 J-1.299
G2 X179.25 Y82.701 I-1.5 J0.0
G2 X178.5214 Y83.7478 I0.75 J1.299
G1 F500.0 Z-12.0
G2 F600.0 X179.25 Y85.299 I1.4786 J0.2522
G2 X181.5 Y84.0 I0.75 J-1.299
G2 X179.25 Y82.701 I-1.5 J0.0
G2 X178.5214 Y83.7478 I0.75 J1.299
G1 F500.0 Z-16.0
G2 F600.0 X179.25 Y85.299 I1.4786 J0.2522
G2 X181.5 Y84.0 I0.75 J-1.299
G2 X179.25 Y82.701 I-1.5 J0.0
G2 X178.5214 Y83.7478 I0.75 J1.299
G0 Z3.0
G0 X179.8504 Y70.4925
G0 Z1.0
G1 F500.0 Z-4.0
G2 F600.0 X181.5 Y69.0 I0.1496 J-1.4925
G2 X179.25 Y67.701 I-1.5 J0.0
G2 Y70.299 I0.75 J1.299
G2 X179.8504 Y70.4925 I0.75 J-1.299
G1 F500.0 Z-8.0
G2 F600.0 X181.5 Y69.0 I0.1496 J-1.4925
G2 X179.25 Y67.701 I-1.5 J0.0
G2 Y70.299 I0.75 J1.299
G2 X179.8504 Y70.4925 I0.75 J-1.299
G1 F500.0 Z-12.0
G2 F600.0 X181.5 Y69.0 I0.1496 J-1.4925
G2 X179.25 Y67.701 I-1.5 J0.0
G2 Y70.299 I0.75 J1.299
G2 X179.8504 Y70.4925 I0.75 J-1.299
G1 F500.0 Z-16.0
G2 F600.0 X181.5 Y69.0 I0.1496 J-1.4925
G2 X179.25 Y67.701 I-1.5 J0.0
G2 Y70.299 I0.75 J1.299
G2 X179.8504 Y70.4925 I0.75 J-1.299
G0 Z3.0
G0 X218.501 Y69.0557
G0 Z1.0
G1 F500.0 Z-4.0
G2 F600.0 X219.25 Y70.299 I1.499 J-0.0557
G2 X221.5 Y69.0 I0.75 J-1.299
G2 X219.25 Y67.701 I-1.5 J0.0
G2 X218.501 Y69.0557 I0.75 J1.299
G1 F500.0 Z-8.0
G2 F600.0 X219.25 Y70.299 I1.499 J-0.0557
G2 X221.5 Y69.0 I0.75 J-1.299
G2 X219.25 Y67.701 I-1.5 J0.0
G2 X218.501 Y69.0557 I0.75 J1.299
G1 F500.0 Z-12.0
G2 F600.0 X219.25 Y70.299 I1.499 J-0.0557
G2 X221.5 Y69.0 I0.75 J-1.299
G2 X219.25 Y67.701 I-1.5 J0.0
G2 X218.501 Y69.0557 I0.75 J1.299
G1 F500.0 Z-16.0
G2 F600.0 X219.25 Y70.299 I1.499 J-0.0557
G2 X221.5 Y69.0 I0.75 J-1.299
G2 X219.25 Y67.701 I-1.5 J0.0
G2 X218.501 Y69.0557 I0.75 J1.299
G0 Z3.0
G0 X219.8503 Y82.5075
G0 Z1.0
G1 F500.0 Z-4.0
G2 F600.0 X219.25 Y82.701 I0.1497 J1.4925
G2 Y85.299 I0.75 J1.299
G2 X221.5 Y84.0 I0.75 J-1.299
G2 X219.8503 Y82.5075 I-1.5 J0.0
G1 F500.0 Z-8.0
G2 F600.0 X219.25 Y82.701 I0.1497 J1.4925
G2 Y85.299 I0.75 J1.299
G2 X221.5 Y84.0 I0.75 J-1.299
G2 X219.8503 Y82.5075 I-1.5 J0.0
G1 F500.0 Z-12.0
G2 F600.0 X219.25 Y82.701 I0.1497 J1.4925
G2 Y85.299 I0.75 J1.299
G2 X221.5 Y84.0 I0.75 J-1.299
G2 X219.8503 Y82.5075 I-1.5 J0.0
G1 F500.0 Z-16.0
G2 F600.0 X219.25 Y82.701 I0.1497 J1.4925
G2 Y85.299 I0.75 J1.299
G2 X221.5 Y84.0 I0.75 J-1.299
G2 X219.8503 Y82.5075 I-1.5 J0.0
G0 Z3.0
G0 X219.9946 Y122.5
G0 Z1.0
G1 F500.0 Z-4.0
G2 F600.0 X219.25 Y122.701 I0.0054 J1.5
G2 Y125.299 I0.75 J1.299
G2 X221.5 Y124.0 I0.75 J-1.299
G2 X219.9946 Y122.5 I-1.5 J0.0
G1 F500.0 Z-8.0
G2 F600.0 X219.25 Y122.701 I0.0054 J1.5
G2 Y125.299 I0.75 J1.299
G2 X221.5 Y124.0 I0.75 J-1.299
G2 X219.9946 Y122.5 I-1.5 J0.0
G1 F500.0 Z-12.0
G2 F600.0 X219.25 Y122.701 I0.0054 J1.5
G2 Y125.299 I0.75 J1.299
G2 X221.5 Y124.0 I0.75 J-1.299
G2 X219.9946 Y122.5 I-1.5 J0.0
G1 F500.0 Z-16.0
G2 F600.0 X219.25 Y122.701 I0.0054 J1.5
G2 Y125.299 I0.75 J1.299
G2 X221.5 Y124.0 I0.75 J-1.299
G2 X219.9946 Y122.5 I-1.5 J0.0
G0 Z3.0
G0 X181.4989 Y123.9438
G0 Z1.0
G1 F500.0 Z-4.0
G2 F600.0 X179.25 Y122.701 I-1.4989 J0.0562
G2 Y125.299 I0.75 J1.299
G2 X181.5 Y124.0 I0.75 J-1.299
G2 X181.4989 Y123.9438 I-1.5 J0.0
G1 F500.0 Z-8.0
G2 F600.0 X179.25 Y122.701 I-1.4989 J0.0562
G2 Y125.299 I0.75 J1.299
G2 X181.5 Y124.0 I0.75 J-1.299
G2 X181.4989 Y123.9438 I-1.5 J0.0
G1 F500.0 Z-12.0
G2 F600.0 X179.25 Y122.701 I-1.4989 J0.0562
G2 Y125.299 I0.75 J1.299
G2 X181.5 Y124.0 I0.75 J-1.299
G2 X181.4989 Y123.9438 I-1.5 J0.0
G1 F500.0 Z-16.0
G2 F600.0 X179.25 Y122.701 I-1.4989 J0.0562
G2 Y125.299 I0.75 J1.299
G2 X181.5 Y124.0 I0.75 J-1.299
G2 X181.4989 Y123.9438 I-1.5 J0.0
G0 Z3.0
G0 X180.0237 Y30.4998
G0 Z1.0
G1 F500.0 Z-4.0
G2 F600.0 X181.5 Y29.0 I-0.0237 J-1.4998
G2 X179.25 Y27.701 I-1.5 J0.0
G2 Y30.299 I0.75 J1.299
G2 X180.0237 Y30.4998 I0.75 J-1.299
G1 F500.0 Z-8.0
G2 F600.0 X181.5 Y29.0 I-0.0237 J-1.4998
G2 X179.25 Y27.701 I-1.5 J0.0
G2 Y30.299 I0.75 J1.299
G2 X180.0237 Y30.4998 I0.75 J-1.299
G1 F500.0 Z-12.0
G2 F600.0 X181.5 Y29.0 I-0.0237 J-1.4998
G2 X179.25 Y27.701 I-1.5 J0.0
G2 Y30.299 I0.75 J1.299
G2 X180.0237 Y30.4998 I0.75 J-1.299
G1 F500.0 Z-16.0
G2 F600.0 X181.5 Y29.0 I-0.0237 J-1.4998
G2 X179.25 Y27.701 I-1.5 J0.0
G2 Y30.299 I0.75 J1.299
G2 X180.0237 Y30.4998 I0.75 J-1.299
G0 Z3.0
G0 X218.5011 Y29.0562
G0 Z1.0
G1 F500.0 Z-4.0
G2 F600.0 X219.25 Y30.299 I1.4989 J-0.0562
G2 X221.5 Y29.0 I0.75 J-1.299
G2 X219.25 Y27.701 I-1.5 J0.0
G2 X218.5011 Y29.0562 I0.75 J1.299
G1 F500.0 Z-8.0
G2 F600.0 X219.25 Y30.299 I1.4989 J-0.0562
G2 X221.5 Y29.0 I0.75 J-1.299
G2 X219.25 Y27.701 I-1.5 J0.0
G2 X218.5011 Y29.0562 I0.75 J1.299
G1 F500.0 Z-12.0
G2 F600.0 X219.25 Y30.299 I1.4989 J-0.0562
G2 X221.5 Y29.0 I0.75 J-1.299
G2 X219.25 Y27.701 I-1.5 J0.0
G2 X218.5011 Y29.0562 I0.75 J1.299
G1 F500.0 Z-16.0
G2 F600.0 X219.25 Y30.299 I1.4989 J-0.0562
G2 X221.5 Y29.0 I0.75 J-1.299
G2 X219.25 Y27.701 I-1.5 J0.0
G2 X218.5011 Y29.0562 I0.75 J1.299
G0 Z3.0
G0 X61.2868 Y123.2292
G0 Z1.0
G1 F500.0 Z-4.0
G2 F600.0 X59.25 Y122.701 I-1.2868 J0.7708
G2 Y125.299 I0.75 J1.299
G2 X61.5 Y124.0 I0.75 J-1.299
G2 X61.2868 Y123.2292 I-1.5 J0.0
G1 F500.0 Z-8.0
G2 F600.0 X59.25 Y122.701 I-1.2868 J0.7708
G2 Y125.299 I0.75 J1.299
G2 X61.5 Y124.0 I0.75 J-1.299
G2 X61.2868 Y123.2292 I-1.5 J0.0
G1 F500.0 Z-12.0
G2 F600.0 X59.25 Y122.701 I-1.2868 J0.7708
G2 Y125.299 I0.75 J1.299
G2 X61.5 Y124.0 I0.75 J-1.299
G2 X61.2868 Y123.2292 I-1.5 J0.0
G1 F500.0 Z-16.0
G2 F600.0 X59.25 Y122.701 I-1.2868 J0.7708
G2 Y125.299 I0.75 J1.299
G2 X61.5 Y124.0 I0.75 J-1.299
G2 X61.2868 Y123.2292 I-1.5 J0.0
G0 Z3.0
G0 X21.4997 Y123.972
G0 Z1.0
G1 F500.0 Z-4.0
G2 F600.0 X19.25 Y122.701 I-1.4997 J0.028
G2 Y125.299 I0.75 J1.299
G2 X21.5 Y124.0 I0.75 J-1.299
G2 X21.4997 Y123.972 I-1.5 J0.0
G1 F500.0 Z-8.0
G2 F600.0 X19.25 Y122.701 I-1.4997 J0.028
G2 Y125.299 I0.75 J1.299
G2 X21.5 Y124.0 I0.75 J-1.299
G2 X21.4997 Y123.972 I-1.5 J0.0
G1 F500.0 Z-12.0
G2 F600.0 X19.25 Y122.701 I-1.4997 J0.028
G2 Y125.299 I0.75 J1.299
G2 X21.5 Y124.0 I0.75 J-1.299
G2 X21.4997 Y123.972 I-1.5 J0.0
G1 F500.0 Z-16.0
G2 F600.0 X19.25 Y122.701 I-1.4997 J0.028
G2 Y125.299 I0.75 J1.299
G2 X21.5 Y124.0 I0.75 J-1.299
G2 X21.4997 Y123.972 I-1.5 J0.0
G0 Z3.0
G0 X20.0562 Y85.4989
G0 Z1.0
G1 F500.0 Z-4.0
G2 F600.0 X21.5 Y84.0 I-0.0562 J-1.4989
G2 X19.25 Y82.701 I-1.5 J0.0
G2 Y85.299 I0.75 J1.299
G2 X20.0562 Y85.4989 I0.75 J-1.299
G1 F500.0 Z-8.0
G2 F600.0 X21.5 Y84.0 I-0.0562 J-1.4989
G2 X19.25 Y82.701 I-1.5 J0.0
G2 Y85.299 I0.75 J1.299
G2 X20.0562 Y85.4989 I0.75 J-1.299
G1 F500.0 Z-12.0
G2 F600.0 X21.5 Y84.0 I-0.0562 J-1.4989
G2 X19.25 Y82.701 I-1.5 J0.0
G2 Y85.299 I0.75 J1.299
G2 X20.0562 Y85.4989 I0.75 J-1.299
G1 F500.0 Z-16.0
G2 F600.0 X21.5 Y84.0 I-0.0562 J-1.4989
G2 X19.25 Y82.701 I-1.5 J0.0
G2 Y85.299 I0.75 J1.299
G2 X20.0562 Y85.4989 I0.75 J-1.299
G0 Z3.0
G0 X20.0051 Y70.5
G0 Z1.0
G1 F500.0 Z-4.0
G2 F600.0 X21.5 Y69.0 I-0.0051 J-1.5
G2 X19.25 Y67.701 I-1.5 J0.0
G2 Y70.299 I0.75 J1.299
G2 X20.0051 Y70.5 I0.75 J-1.299
G1 F500.0 Z-8.0
G2 F600.0 X21.5 Y69.0 I-0.0051 J-1.5
G2 X19.25 Y67.701 I-1.5 J0.0
G2 Y70.299 I0.75 J1.299
G2 X20.0051 Y70.5 I0.75 J-1.299
G1 F500.0 Z-12.0
G2 F600.0 X21.5 Y69.0 I-0.0051 J-1.5
G2 X19.25 Y67.701 I-1.5 J0.0
G2 Y70.299 I0.75 J1.299
G2 X20.0051 Y70.5 I0.75 J-1.299
G1 F500.0 Z-16.0
G2 F600.0 X21.5 Y69.0 I-0.0051 J-1.5
G2 X19.25 Y67.701 I-1.5 J0.0
G2 Y70.299 I0.75 J1.299
G2 X20.0051 Y70.5 I0.75 J-1.299
( furos-6mm-rebaixo )
S1000
G0 Z3.0
G0 X24.5 Y29.0
G0 Z1.0
G1 F500.0 Z-3.0
G3 F600.0 X17.75 Y32.8971 I-4.5 J0.0
G3 Y25.1029 I2.25 J-3.8971
G3 X24.5 Y29.0 I2.25 J3.8971
G1 F500.0 Z-6.0
G3 F600.0 X17.75 Y32.8971 I-4.5 J0.0
G3 Y25.1029 I2.25 J-3.8971
G3 X24.5 Y29.0 I2.25 J3.8971
G1 F500.0 Z-7.0
G3 F600.0 X17.75 Y32.8971 I-4.5 J0.0
G3 Y25.1029 I2.25 J-3.8971
G3 X24.5 Y29.0 I2.25 J3.8971
G0 Z3.0
G0 X55.5
G0 Z1.0
G1 F500.0 Z-3.0
G3 F600.0 X57.75 Y25.1029 I4.5 J0.0
G3 X64.5 Y29.0 I2.25 J3.8971
G3 X57.75 Y32.8971 I-4.5 J0.0
G3 X55.5 Y29.0 I2.25 J-3.8971
G1 F500.0 Z-6.0
G3 F600.0 X57.75 Y25.1029 I4.5 J0.0
G3 X64.5 Y29.0 I2.25 J3.8971
G3 X57.75 Y32.8971 I-4.5 J0.0
G3 X55.5 Y29.0 I2.25 J-3.8971
G1 F500.0 Z-7.0
G3 F600.0 X57.75 Y25.1029 I4.5 J0.0
G3 X64.5 Y29.0 I2.25 J3.8971
G3 X57.75 Y32.8971 I-4.5 J0.0
G3 X55.5 Y29.0 I2.25 J-3.8971
G0 Z3.0
G0 X59.7871 Y119.505
G0 Z1.0
G1 F500.0 Z-3.0
G3 F600.0 X64.5 Y124.0 I0.2129 J4.495
G3 X57.75 Y127.8971 I-4.5 J0.0
G3 Y120.1029 I2.25 J-3.8971
G3 X59.7871 Y119.505 I2.25 J3.8971
G1 F500.0 Z-6.0
G3 F600.0 X64.5 Y124.0 I0.2129 J4.495
G3 X57.75 Y127.8971 I-4.5 J0.0
G3 Y120.1029 I2.25 J-3.8971
G3 X59.7871 Y119.505 I2.25 J3.8971
G1 F500.0 Z-7.0
G3 F600.0 X64.5 Y124.0 I0.2129 J4.495
G3 X57.75 Y127.8971 I-4.5 J0.0
G3 Y120.1029 I2.25 J-3.8971
G3 X59.7871 Y119.505 I2.25 J3.8971
G0 Z3.0
G0 X24.4716 Y123.4948
G0 Z1.0
G1 F500.0 Z-3.0
G3 F600.0 X24.5 Y124.0 I-4.4716 J0.5052
G3 X17.75 Y127.8971 I-4.5 J0.0
G3 Y120.1029 I2.25 J-3.8971
G3 X24.4716 Y123.4948 I2.25 J3.8971
G1 F500.0 Z-6.0
G3 F600.0 X24.5 Y124.0 I-4.4716 J0.5052
G3 X17.75 Y127.8971 I-4.5 J0.0
G3 Y120.1029 I2.25 J-3.8971
G3 X24.4716 Y123.4948 I2.25 J3.8971
G1 F500.0 Z-7.0
G3 F600.0 X24.5 Y124.0 I-4.4716 J0.5052
G3 X17.75 Y127.8971 I-4.5 J0.0
G3 Y120.1029 I2.25 J-3.8971
G3 X24.4716 Y123.4948 I2.25 J3.8971
G0 Z3.0
G0 X175.5 Y123.9854
G0 Z1.0
G1 F500.0 Z-3.0
G3 F600.0 X177.75 Y120.1029 I4.5 J0.0146
G3 X184.5 Y124.0 I2.25 J3.8971
G3 X177.75 Y127.8971 I-4.5 J0.0
G3 X175.5 Y123.9854 I2.25 J-3.8971
G1 F500.0 Z-6.0
G3 F600.0 X177.75 Y120.1029 I4.5 J0.0146
G3 X184.5 Y124.0 I2.25 J3.8971
G3 X177.75 Y127.8971 I-4.5 J0.0
G3 X175.5 Y123.9854 I2.25 J-3.8971
G1 F500.0 Z-7.0
G3 F600.0 X177.75 Y120.1029 I4.5 J0.0146
G3 X184.5 Y124.0 I2.25 J3.8971
G3 X177.75 Y127.8971 I-4.5 J0.0
G3 X175.5 Y123.9854 I2.25 J-3.8971
G0 Z3.0
G0 X215.5 Y123.9985
G0 Z1.0
G1 F500.0 Z-3.0
G3 F600.0 X217.75 Y120.1029 I4.5 J0.0015
G3 X224.5 Y124.0 I2.25 J3.8971
G3 X217.75 Y127.8971 I-4.5 J0.0
G3 X215.5 Y123.9985 I2.25 J-3.8971
G1 F500.0 Z-6.0
G3 F600.0 X217.75 Y120.1029 I4.5 J0.0015
G3 X224.5 Y124.0 I2.25 J3.8971
G3 X217.75 Y127.8971 I-4.5 J0.0
G3 X215.5 Y123.9985 I2.25 J-3.8971
G1 F500.0 Z-7.0
G3 F600.0 X217.75 Y120.1029 I4.5 J0.0015
G3 X224.5 Y124.0 I2.25 J3.8971
G3 X217.75 Y127.8971 I-4.5 J0.0
G3 X215.5 Y123.9985 I2.25 J-3.8971
G0 Z3.0
G0 X219.7871 Y33.495
G0 Z1.0
G1 F500.0 Z-3.0
G3 F600.0 X217.75 Y32.8971 I0.2129 J-4.495
G3 Y25.1029 I2.25 J-3.8971
G3 X224.5 Y29.0 I2.25 J3.8971
G3 X219.7871 Y33.495 I-4.5 J0.0
G1 F500.0 Z-6.0
G3 F600.0 X217.75 Y32.8971 I0.2129 J-4.495
G3 Y25.1029 I2.25 J-3.8971
G3 X224.5 Y29.0 I2.25 J3.8971
G3 X219.7871 Y33.495 I-4.5 J0.0
G1 F500.0 Z-7.0
G3 F600.0 X217.75 Y32.8971 I0.2129 J-4.495
G3 Y25.1029 I2.25 J-3.8971
G3 X224.5 Y29.0 I2.25 J3.8971
G3 X219.7871 Y33.495 I-4.5 J0.0
G0 Z3.0
G0 X184.4716 Y29.5052
G0 Z1.0
G1 F500.0 Z-3.0
G3 F600.0 X177.75 Y32.8971 I-4.4716 J-0.5052
G3 Y25.1029 I2.25 J-3.8971
G3 X184.5 Y29.0 I2.25 J3.8971
G3 X184.4716 Y29.5052 I-4.5 J0.0
G1 F500.0 Z-6.0
G3 F600.0 X177.75 Y32.8971 I-4.4716 J-0.5052
G3 Y25.1029 I2.25 J-3.8971
G3 X184.5 Y29.0 I2.25 J3.8971
G3 X184.4716 Y29.5052 I-4.5 J0.0
G1 F500.0 Z-7.0
G3 F600.0 X177.75 Y32.8971 I-4.4716 J-0.5052
G3 Y25.1029 I2.25 J-3.8971
G3 X184.5 Y29.0 I2.25 J3.8971
G3 X184.4716 Y29.5052 I-4.5 J0.0
( furos-15mm-rebaixo )
S1000
G0 Z3.0
G0 X26.0 Y29.0
G0 Z1.0
G1 F500.0 Z-3.0
G2 F600.0 X17.0 Y23.8038 I-6.0 J0.0
G2 Y34.1962 I3.0 J5.1962
G2 X26.0 Y29.0 I3.0 J-5.1962
G1 F500.0 Z-6.0
G2 F600.0 X17.0 Y23.8038 I-6.0 J0.0
G2 Y34.1962 I3.0 J5.1962
G2 X26.0 Y29.0 I3.0 J-5.1962
G1 F500.0 Z-7.0
G2 F600.0 X17.0 Y23.8038 I-6.0 J0.0
G2 Y34.1962 I3.0 J5.1962
G2 X26.0 Y29.0 I3.0 J-5.1962
G0 Z3.0
G0 X54.0
G0 Z1.0
G1 F500.0 Z-3.0
G2 F600.0 X57.0 Y34.1962 I6.0 J0.0
G2 X66.0 Y29.0 I3.0 J-5.1962
G2 X57.0 Y23.8038 I-6.0 J0.0
G2 X54.0 Y29.0 I3.0 J5.1962
G1 F500.0 Z-6.0
G2 F600.0 X57.0 Y34.1962 I6.0 J0.0
G2 X66.0 Y29.0 I3.0 J-5.1962
G2 X57.0 Y23.8038 I-6.0 J0.0
G2 X54.0 Y29.0 I3.0 J5.1962
G1 F500.0 Z-7.0
G2 F600.0 X57.0 Y34.1962 I6.0 J0.0
G2 X66.0 Y29.0 I3.0 J-5.1962
G2 X57.0 Y23.8038 I-6.0 J0.0
G2 X54.0 Y29.0 I3.0 J5.1962
G0 Z3.0
G0 X59.6218 Y118.0119
G0 Z1.0
G1 F500.0 Z-3.0
G2 F600.0 X57.0 Y118.8038 I0.3782 J5.9881
G2 Y129.1962 I3.0 J5.1962
G2 X66.0 Y124.0 I3.0 J-5.1962
G2 X59.6218 Y118.0119 I-6.0 J0.0
G1 F500.0 Z-6.0
G2 F600.0 X57.0 Y118.8038 I0.3782 J5.9881
G2 Y129.1962 I3.0 J5.1962
G2 X66.0 Y124.0 I3.0 J-5.1962
G2 X59.6218 Y118.0119 I-6.0 J0.0
G1 F500.0 Z-7.0
G2 F600.0 X57.0 Y118.8038 I0.3782 J5.9881
G2 Y129.1962 I3.0 J5.1962
G2 X66.0 Y124.0 I3.0 J-5.1962
G2 X59.6218 Y118.0119 I-6.0 J0.0
G0 Z3.0
G0 X25.9326 Y123.1034
G0 Z1.0
G1 F500.0 Z-3.0
G2 F600.0 X17.0 Y118.8038 I-5.9326 J0.8966
G2 Y129.1962 I3.0 J5.1962
G2 X26.0 Y124.0 I3.0 J-5.1962
G2 X25.9326 Y123.1034 I-6.0 J0.0
G1 F500.0 Z-6.0
G2 F600.0 X17.0 Y118.8038 I-5.9326 J0.8966
G2 Y129.1962 I3.0 J5.1962
G2 X26.0 Y124.0 I3.0 J-5.1962
G2 X25.9326 Y123.1034 I-6.0 J0.0
G1 F500.0 Z-7.0
G2 F600.0 X17.0 Y118.8038 I-5.9326 J0.8966
G2 Y129.1962 I3.0 J5.1962
G2 X26.0 Y124.0 I3.0 J-5.1962
G2 X25.9326 Y123.1034 I-6.0 J0.0
G0 Z3.0
G0 X174.0001 Y123.9651
G0 Z1.0
G1 F500.0 Z-3.0
G2 F600.0 X177.0 Y129.1962 I5.9999 J0.0349
G2 X186.0 Y124.0 I3.0 J-5.1962
G2 X177.0 Y118.8038 I-6.0 J0.0
G2 X174.0001 Y123.9651 I3.0 J5.1962
G1 F500.0 Z-6.0
G2 F600.0 X177.0 Y129.1962 I5.9999 J0.0349
G2 X186.0 Y124.0 I3.0 J-5.1962
G2 X177.0 Y118.8038 I-6.0 J0.0
G2 X174.0001 Y123.9651 I3.0 J5.1962
G1 F500.0 Z-7.0
G2 F600.0 X177.0 Y129.1962 I5.9999 J0.0349
G2 X186.0 Y124.0 I3.0 J-5.1962
G2 X177.0 Y118.8038 I-6.0 J0.0
G2 X174.0001 Y123.9651 I3.0 J5.1962
G0 Z3.0
G0 X214.0 Y123.9954
G0 Z1.0
G1 F500.0 Z-3.0
G2 F600.0 X217.0 Y129.1962 I6.0 J0.0046
G2 X226.0 Y124.0 I3.0 J-5.1962
G2 X217.0 Y118.8038 I-6.0 J0.0
G2 X214.0 Y123.9954 I3.0 J5.1962
G1 F500.0 Z-6.0
G2 F600.0 X217.0 Y129.1962 I6.0 J0.0046
G2 X226.0 Y124.0 I3.0 J-5.1962
G2 X217.0 Y118.8038 I-6.0 J0.0
G2 X214.0 Y123.9954 I3.0 J5.1962
G1 F500.0 Z-7.0
G2 F600.0 X217.0 Y129.1962 I6.0 J0.0046
G2 X226.0 Y124.0 I3.0 J-5.1962
G2 X217.0 Y118.8038 I-6.0 J0.0
G2 X214.0 Y123.9954 I3.0 J5.1962
G0 Z3.0
G0 X219.6218 Y34.9881
G0 Z1.0
G1 F500.0 Z-3.0
G2 F600.0 X226.0 Y29.0 I0.3782 J-5.9881
G2 X217.0 Y23.8038 I-6.0 J0.0
G2 Y34.1962 I3.0 J5.1962
G2 X219.6218 Y34.9881 I3.0 J-5.1962
G1 F500.0 Z-6.0
G2 F600.0 X226.0 Y29.0 I0.3782 J-5.9881
G2 X217.0 Y23.8038 I-6.0 J0.0
G2 Y34.1962 I3.0 J5.1962
G2 X219.6218 Y34.9881 I3.0 J-5.1962
G1 F500.0 Z-7.0
G2 F600.0 X226.0 Y29.0 I0.3782 J-5.9881
G2 X217.0 Y23.8038 I-6.0 J0.0
G2 Y34.1962 I3.0 J5.1962
G2 X219.6218 Y34.9881 I3.0 J-5.1962
G0 Z3.0
G0 X185.9326 Y29.8966
G0 Z1.0
G1 F500.0 Z-3.0
G2 F600.0 X186.0 Y29.0 I-5.9326 J-0.8966
G2 X177.0 Y23.8038 I-6.0 J0.0
G2 Y34.1962 I3.0 J5.1962
G2 X185.9326 Y29.8966 I3.0 J-5.1962
G1 F500.0 Z-6.0
G2 F600.0 X186.0 Y29.0 I-5.9326 J-0.8966
G2 X177.0 Y23.8038 I-6.0 J0.0
G2 Y34.1962 I3.0 J5.1962
G2 X185.9326 Y29.8966 I3.0 J-5.1962
G1 F500.0 Z-7.0
G2 F600.0 X186.0 Y29.0 I-5.9326 J-0.8966
G2 X177.0 Y23.8038 I-6.0 J0.0
G2 Y34.1962 I3.0 J5.1962
G2 X185.9326 Y29.8966 I3.0 J-5.1962
( furo-15mm-rebaixo )
S1000
G0 Z3.0
G0 X220.0 Y69.0
G0 Z1.0
G1 F500.0 Z-3.0
G1 Y84.0
G1 Y69.0
G1 X219.8675 Y67.8073
G2 X218.8 Y69.0 I0.1325 J1.1927
G1 Y84.0
G2 X221.2 I1.2 J0.0
G1 Y69.0
G2 X219.8675 Y67.8073 I-1.2 J0.0
G1 X219.735 Y66.6147
G2 X217.6 Y69.0 I0.265 J2.3853
G1 Y84.0
G2 X222.4 I2.4 J0.0
G1 Y69.0
G2 X219.735 Y66.6147 I-2.4 J0.0
G1 X219.6024 Y65.422
G2 X216.4 Y69.0 I0.3976 J3.578
G1 Y84.0
G2 X223.6 I3.6 J0.0
G1 Y69.0
G2 X219.6024 Y65.422 I-3.6 J0.0
G1 X219.4699 Y64.2294
G2 X215.2 Y69.0 I0.5301 J4.7706
G1 Y84.0
G2 X224.8 I4.8 J0.0
G1 Y69.0
G2 X219.4699 Y64.2294 I-4.8 J0.0
G1 X219.3374 Y63.0367
G2 X214.0 Y69.0 I0.6626 J5.9633
G1 Y84.0
G2 X226.0 I6.0 J0.0
G1 Y69.0
G2 X219.3374 Y63.0367 I-6.0 J0.0
G0 Z3.0
G0 X220.0 Y69.0
G0 Z-2.0
G1 Z-6.0
G1 Y84.0
G1 Y69.0
G1 X219.8675 Y67.8073
G2 X218.8 Y69.0 I0.1325 J1.1927
G1 Y84.0
G2 X221.2 I1.2 J0.0
G1 Y69.0
G2 X219.8675 Y67.8073 I-1.2 J0.0
G1 X219.735 Y66.6147
G2 X217.6 Y69.0 I0.265 J2.3853
G1 Y84.0
G2 X222.4 I2.4 J0.0
G1 Y69.0
G2 X219.735 Y66.6147 I-2.4 J0.0
G1 X219.6024 Y65.422
G2 X216.4 Y69.0 I0.3976 J3.578
G1 Y84.0
G2 X223.6 I3.6 J0.0
G1 Y69.0
G2 X219.6024 Y65.422 I-3.6 J0.0
G1 X219.4699 Y64.2294
G2 X215.2 Y69.0 I0.5301 J4.7706
G1 Y84.0
G2 X224.8 I4.8 J0.0
G1 Y69.0
G2 X219.4699 Y64.2294 I-4.8 J0.0
G1 X219.3374 Y63.0367
G2 X214.0 Y69.0 I0.6626 J5.9633
G1 Y84.0
G2 X226.0 I6.0 J0.0
G1 Y69.0
G2 X219.3374 Y63.0367 I-6.0 J0.0
G0 Z3.0
G0 X220.0 Y69.0
G0 Z-5.0
G1 Z-7.0
G1 Y84.0
G1 Y69.0
G1 X219.8675 Y67.8073
G2 X218.8 Y69.0 I0.1325 J1.1927
G1 Y84.0
G2 X221.2 I1.2 J0.0
G1 Y69.0
G2 X219.8675 Y67.8073 I-1.2 J0.0
G1 X219.735 Y66.6147
G2 X217.6 Y69.0 I0.265 J2.3853
G1 Y84.0
G2 X222.4 I2.4 J0.0
G1 Y69.0
G2 X219.735 Y66.6147 I-2.4 J0.0
G1 X219.6024 Y65.422
G2 X216.4 Y69.0 I0.3976 J3.578
G1 Y84.0
G2 X223.6 I3.6 J0.0
G1 Y69.0
G2 X219.6024 Y65.422 I-3.6 J0.0
G1 X219.4699 Y64.2294
G2 X215.2 Y69.0 I0.5301 J4.7706
G1 Y84.0
G2 X224.8 I4.8 J0.0
G1 Y69.0
G2 X219.4699 Y64.2294 I-4.8 J0.0
G1 X219.3374 Y63.0367
G2 X214.0 Y69.0 I0.6626 J5.9633
G1 Y84.0
G2 X226.0 I6.0 J0.0
G1 Y69.0
G2 X219.3374 Y63.0367 I-6.0 J0.0
G0 Z3.0
G0 X180.0 Y84.0
G0 Z1.0
G1 Z-3.0
G1 Y69.0
G1 X180.96 Y68.28
G2 X178.8 Y69.0 I-0.96 J0.72
G1 Y84.0
G2 X181.2 I1.2 J0.0
G1 Y69.0
G2 X180.96 Y68.28 I-1.2 J0.0
G1 X181.92 Y67.56
G2 X177.6 Y69.0 I-1.92 J1.44
G1 Y84.0
G2 X182.4 I2.4 J0.0
G1 Y69.0
G2 X181.92 Y67.56 I-2.4 J0.0
G1 X182.88 Y66.84
G2 X176.4 Y69.0 I-2.88 J2.16
G1 Y84.0
G2 X183.6 I3.6 J0.0
G1 Y69.0
G2 X182.88 Y66.84 I-3.6 J0.0
G1 X183.84 Y66.12
G2 X175.2 Y69.0 I-3.84 J2.88
G1 Y84.0
G2 X184.8 I4.8 J0.0
G1 Y69.0
G2 X183.84 Y66.12 I-4.8 J0.0
G1 X184.8 Y65.4
G2 X174.0 Y69.0 I-4.8 J3.6
G1 Y84.0
G2 X186.0 I6.0 J0.0
G1 Y69.0
G2 X184.8 Y65.4 I-6.0 J0.0
G0 Z3.0
G0 X180.0 Y84.0
G0 Z-2.0
G1 Z-6.0
G1 Y69.0
G1 X180.96 Y68.28
G2 X178.8 Y69.0 I-0.96 J0.72
G1 Y84.0
G2 X181.2 I1.2 J0.0
G1 Y69.0
G2 X180.96 Y68.28 I-1.2 J0.0
G1 X181.92 Y67.56
G2 X177.6 Y69.0 I-1.92 J1.44
G1 Y84.0
G2 X182.4 I2.4 J0.0
G1 Y69.0
G2 X181.92 Y67.56 I-2.4 J0.0
G1 X182.88 Y66.84
G2 X176.4 Y69.0 I-2.88 J2.16
G1 Y84.0
G2 X183.6 I3.6 J0.0
G1 Y69.0
G2 X182.88 Y66.84 I-3.6 J0.0
G1 X183.84 Y66.12
G2 X175.2 Y69.0 I-3.84 J2.88
G1 Y84.0
G2 X184.8 I4.8 J0.0
G1 Y69.0
G2 X183.84 Y66.12 I-4.8 J0.0
G1 X184.8 Y65.4
G2 X174.0 Y69.0 I-4.8 J3.6
G1 Y84.0
G2 X186.0 I6.0 J0.0
G1 Y69.0
G2 X184.8 Y65.4 I-6.0 J0.0
G0 Z3.0
G0 X180.0 Y84.0
G0 Z-5.0
G1 Z-7.0
G1 Y69.0
G1 X180.96 Y68.28
G2 X178.8 Y69.0 I-0.96 J0.72
G1 Y84.0
G2 X181.2 I1.2 J0.0
G1 Y69.0
G2 X180.96 Y68.28 I-1.2 J0.0
G1 X181.92 Y67.56
G2 X177.6 Y69.0 I-1.92 J1.44
G1 Y84.0
G2 X182.4 I2.4 J0.0
G1 Y69.0
G2 X181.92 Y67.56 I-2.4 J0.0
G1 X182.88 Y66.84
G2 X176.4 Y69.0 I-2.88 J2.16
G1 Y84.0
G2 X183.6 I3.6 J0.0
G1 Y69.0
G2 X182.88 Y66.84 I-3.6 J0.0
G1 X183.84 Y66.12
G2 X175.2 Y69.0 I-3.84 J2.88
G1 Y84.0
G2 X184.8 I4.8 J0.0
G1 Y69.0
G2 X183.84 Y66.12 I-4.8 J0.0
G1 X184.8 Y65.4
G2 X174.0 Y69.0 I-4.8 J3.6
G1 Y84.0
G2 X186.0 I6.0 J0.0
G1 Y69.0
G2 X184.8 Y65.4 I-6.0 J0.0
G0 Z3.0
G0 X60.0 Y69.0
G0 Z1.0
G1 Z-3.0
G1 Y84.0
G1 X58.8
G2 X61.2 I1.2 J0.0
G1 Y69.0
G2 X58.8 I-1.2 J0.0
G1 Y84.0
G1 X57.6
G2 X62.4 I2.4 J0.0
G1 Y69.0
G2 X57.6 I-2.4 J0.0
G1 Y84.0
G1 X56.4
G2 X63.6 I3.6 J0.0
G1 Y69.0
G2 X56.4 I-3.6 J0.0
G1 Y84.0
G1 X55.2
G2 X64.8 I4.8 J0.0
G1 Y69.0
G2 X55.2 I-4.8 J0.0
G1 Y84.0
G1 X54.0
G2 X66.0 I6.0 J0.0
G1 Y69.0
G2 X54.0 I-6.0 J0.0
G1 Y84.0
G0 Z3.0
G0 X60.0 Y69.0
G0 Z-2.0
G1 Z-6.0
G1 Y84.0
G1 X58.8
G2 X61.2 I1.2 J0.0
G1 Y69.0
G2 X58.8 I-1.2 J0.0
G1 Y84.0
G1 X57.6
G2 X62.4 I2.4 J0.0
G1 Y69.0
G2 X57.6 I-2.4 J0.0
G1 Y84.0
G1 X56.4
G2 X63.6 I3.6 J0.0
G1 Y69.0
G2 X56.4 I-3.6 J0.0
G1 Y84.0
G1 X55.2
G2 X64.8 I4.8 J0.0
G1 Y69.0
G2 X55.2 I-4.8 J0.0
G1 Y84.0
G1 X54.0
G2 X66.0 I6.0 J0.0
G1 Y69.0
G2 X54.0 I-6.0 J0.0
G1 Y84.0
G0 Z3.0
G0 X60.0 Y69.0
G0 Z-5.0
G1 Z-7.0
G1 Y84.0
G1 X58.8
G2 X61.2 I1.2 J0.0
G1 Y69.0
G2 X58.8 I-1.2 J0.0
G1 Y84.0
G1 X57.6
G2 X62.4 I2.4 J0.0
G1 Y69.0
G2 X57.6 I-2.4 J0.0
G1 Y84.0
G1 X56.4
G2 X63.6 I3.6 J0.0
G1 Y69.0
G2 X56.4 I-3.6 J0.0
G1 Y84.0
G1 X55.2
G2 X64.8 I4.8 J0.0
G1 Y69.0
G2 X55.2 I-4.8 J0.0
G1 Y84.0
G1 X54.0
G2 X66.0 I6.0 J0.0
G1 Y69.0
G2 X54.0 I-6.0 J0.0
G1 Y84.0
G0 Z3.0
G0 X20.0
G0 Z1.0
G1 Z-3.0
G1 Y69.0
G1 Y84.0
G1 X21.2
G1 Y69.0
G2 X18.8 I-1.2 J0.0
G1 Y84.0
G2 X21.2 I1.2 J0.0
G1 X22.4
G1 Y69.0
G2 X17.6 I-2.4 J0.0
G1 Y84.0
G2 X22.4 I2.4 J0.0
G1 X23.6
G1 Y69.0
G2 X16.4 I-3.6 J0.0
G1 Y84.0
G2 X23.6 I3.6 J0.0
G1 X24.8
G1 Y69.0
G2 X15.2 I-4.8 J0.0
G1 Y84.0
G2 X24.8 I4.8 J0.0
G1 X26.0
G1 Y69.0
G2 X14.0 I-6.0 J0.0
G1 Y84.0
G2 X26.0 I6.0 J0.0
G0 Z3.0
G0 X20.0
G0 Z-2.0
G1 Z-6.0
G1 Y69.0
G1 Y84.0
G1 X21.2
G1 Y69.0
G2 X18.8 I-1.2 J0.0
G1 Y84.0
G2 X21.2 I1.2 J0.0
G1 X22.4
G1 Y69.0
G2 X17.6 I-2.4 J0.0
G1 Y84.0
G2 X22.4 I2.4 J0.0
G1 X23.6
G1 Y69.0
G2 X16.4 I-3.6 J0.0
G1 Y84.0
G2 X23.6 I3.6 J0.0
G1 X24.8
G1 Y69.0
G2 X15.2 I-4.8 J0.0
G1 Y84.0
G2 X24.8 I4.8 J0.0
G1 X26.0
G1 Y69.0
G2 X14.0 I-6.0 J0.0
G1 Y84.0
G2 X26.0 I6.0 J0.0
G0 Z3.0
G0 X20.0
G0 Z-5.0
G1 Z-7.0
G1 Y69.0
G1 Y84.0
G1 X21.2
G1 Y69.0
G2 X18.8 I-1.2 J0.0
G1 Y84.0
G2 X21.2 I1.2 J0.0
G1 X22.4
G1 Y69.0
G2 X17.6 I-2.4 J0.0
G1 Y84.0
G2 X22.4 I2.4 J0.0
G1 X23.6
G1 Y69.0
G2 X16.4 I-3.6 J0.0
G1 Y84.0
G2 X23.6 I3.6 J0.0
G1 X24.8
G1 Y69.0
G2 X15.2 I-4.8 J0.0
G1 Y84.0
G2 X24.8 I4.8 J0.0
G1 X26.0
G1 Y69.0
G2 X14.0 I-6.0 J0.0
G1 Y84.0
G2 X26.0 I6.0 J0.0
( contorno-passante )
S1000
G0 Z3.0
G0 X0.0 Y-1.5
G0 Z1.0
G1 F300.0 Z-3.0
G1 F500.0 X240.0
G3 X241.5 Y0.0 I0.0 J1.5
G1 Y153.0
G3 X240.0 Y154.5 I-1.5 J0.0
G1 X0.0
G3 X-1.5 Y153.0 I0.0 J-1.5
G1 Y0.0
G3 X0.0 Y-1.5 I1.5 J0.0
G1 F300.0 Z-6.0
G1 F500.0 X240.0
G3 X241.5 Y0.0 I0.0 J1.5
G1 Y153.0
G3 X240.0 Y154.5 I-1.5 J0.0
G1 X0.0
G3 X-1.5 Y153.0 I0.0 J-1.5
G1 Y0.0
G3 X0.0 Y-1.5 I1.5 J0.0
G1 F300.0 Z-9.0
G1 F500.0 X240.0
G3 X241.5 Y0.0 I0.0 J1.5
G1 Y153.0
G3 X240.0 Y154.5 I-1.5 J0.0
G1 X0.0
G3 X-1.5 Y153.0 I0.0 J-1.5
G1 Y0.0
G3 X0.0 Y-1.5 I1.5 J0.0
G1 F300.0 Z-12.0
G1 F500.0 X240.0
G3 X241.5 Y0.0 I0.0 J1.5
G1 Y153.0
G3 X240.0 Y154.5 I-1.5 J0.0
G1 X0.0
G3 X-1.5 Y153.0 I0.0 J-1.5
G1 Y0.0
G3 X0.0 Y-1.5 I1.5 J0.0
G1 F300.0 Z-15.0
G1 F500.0 X240.0
G3 X241.5 Y0.0 I0.0 J1.5
G1 Y153.0
G3 X240.0 Y154.5 I-1.5 J0.0
G1 X0.0
G3 X-1.5 Y153.0 I0.0 J-1.5
G1 Y0.0
G3 X0.0 Y-1.5 I1.5 J0.0
G1 F300.0 Z-16.0
G1 F500.0 X240.0
G3 X241.5 Y0.0 I0.0 J1.5
G1 Y153.0
G3 X240.0 Y154.5 I-1.5 J0.0
G1 X0.0
G3 X-1.5 Y153.0 I0.0 J-1.5
G1 Y0.0
G3 X0.0 Y-1.5 I1.5 J0.0
G0 Z3.0
M5
M30
